Obsidian/actions/24s/snap-nodes-midpoint.svg

<svg height="24" viewBox="0 0 24 24" width="24" xmlns="http://www.w3.org/2000/svg"><path d="m12.613281.20507812a.50005.50005 0 0 0 -.470703.57421876l.283203 2.08593752-1.037109 1.0371094-.302734-2.2304688a.50005.50005 0 0 0 -.521485-.4394531.50005.50005 0 0 0 -.46875.5742187l.404297 2.984375-1.7089844 1.7089844h-2.2910156v1.40625l-1.2304688.3515625-.2597656-1.921875a.50005.50005 0 0 0 -.5214844-.4394531.50005.50005 0 0 0 -.4707031.5722656l.28125 2.0664062-1.6875.4824219-.2402343-1.765625a.50005.50005 0 0 0 -.5214844-.4394531.50005.50005 0 0 0 -.4707032.5742188l.2597657 1.9101562-.77539065.2207031a.50005.50005 0 1 0 .27343755.9609379l.6367187-.181641.3867187 2.833984-1.51367182 1.513672a.50005.50005 0 1 0 .70703122.707031l.9746094-.974609.0976562.712891a.50005.50005 0 1 0 .9902344-.132813l-.1992187-1.46875 1.5449219-1.544922.3027343 2.230469a.50005.50005 0 1 0 .9902344-.134766l-.4042969-2.984374 1.5546875-1.554688h2.2949219v-1.4101562l1.394531-.3984376.246094 1.8183594a.50052.50052 0 0 0 .992187-.1328125l-.267578-1.9628906 1.134766-.3242187.189453 1.3945312a.50006301.50006301 0 1 0 .990235-.1347656l-.208985-1.5371094 1.166016-.3339844a.50005.50005 0 0 0 -.140625-.9824218.50005.50005 0 0 0 -.132813.0214843l-1.027343.2929688-.351563-2.5898438 1.869141-1.8691406a.50005.50005 0 0 0 -.363282-.85742188.50005.50005 0 0 0 -.34375.15039063l-1.332031 1.33203125-.179687-1.33203125a.50005.50005 0 0 0 -.521485-.43945313zm-.017578 3.90429688.267578 1.9804688-1.132812.3222656-.171875-1.265625zm-1.925781 1.9257812.08789.65625-1.0410151.296875zm-4.3867189 2.9726563-.8027343.8027344-.0742188-.5527344zm-1.8496093.5292969.1582031 1.1621096-1.5429688 1.542969-.3027343-2.22461z" fill="#bebebe" transform="translate(4 4)"/></svg>

<svg xmlns="http://www.w3.org/2000/svg" width="24" height="24" viewBox="0 0 24 24">
 <defs>
  <style id="current-color-scheme" type="text/css">
   .ColorScheme-Text { color:#bebebe; } .ColorScheme-Highlight { color:#4285f4; }
  </style>
 </defs>
 <path style="fill:currentColor" class="ColorScheme-Text" d="M 12.613281 0.20507812 A 0.50005 0.50005 0 0 0 12.142578 0.77929688 L 12.425781 2.8652344 L 11.388672 3.9023438 L 11.085938 1.671875 A 0.50005 0.50005 0 0 0 10.564453 1.2324219 A 0.50005 0.50005 0 0 0 10.095703 1.8066406 L 10.5 4.7910156 L 8.7910156 6.5 L 6.5 6.5 L 6.5 7.90625 L 5.2695312 8.2578125 L 5.0097656 6.3359375 A 0.50005 0.50005 0 0 0 4.4882812 5.8964844 A 0.50005 0.50005 0 0 0 4.0175781 6.46875 L 4.2988281 8.5351562 L 2.6113281 9.0175781 L 2.3710938 7.2519531 A 0.50005 0.50005 0 0 0 1.8496094 6.8125 A 0.50005 0.50005 0 0 0 1.3789062 7.3867188 L 1.6386719 9.296875 L 0.86328125 9.5175781 A 0.50005 0.50005 0 1 0 1.1367188 10.478516 L 1.7734375 10.296875 L 2.1601562 13.130859 L 0.64648438 14.644531 A 0.50005 0.50005 0 1 0 1.3535156 15.351562 L 2.328125 14.376953 L 2.4257812 15.089844 A 0.50005 0.50005 0 1 0 3.4160156 14.957031 L 3.2167969 13.488281 L 4.7617188 11.943359 L 5.0644531 14.173828 A 0.50005 0.50005 0 1 0 6.0546875 14.039062 L 5.6503906 11.054688 L 7.2050781 9.5 L 9.5 9.5 L 9.5 8.0898438 L 10.894531 7.6914062 L 11.140625 9.5097656 A 0.50052 0.50052 0 0 0 12.132812 9.3769531 L 11.865234 7.4140625 L 13 7.0898438 L 13.189453 8.484375 A 0.50006301 0.50006301 0 1 0 14.179688 8.3496094 L 13.970703 6.8125 L 15.136719 6.4785156 A 0.50005 0.50005 0 0 0 14.996094 5.4960938 A 0.50005 0.50005 0 0 0 14.863281 5.5175781 L 13.835938 5.8105469 L 13.484375 3.2207031 L 15.353516 1.3515625 A 0.50005 0.50005 0 0 0 14.990234 0.49414062 A 0.50005 0.50005 0 0 0 14.646484 0.64453125 L 13.314453 1.9765625 L 13.134766 0.64453125 A 0.50005 0.50005 0 0 0 12.613281 0.20507812 z M 12.595703 4.109375 L 12.863281 6.0898438 L 11.730469 6.4121094 L 11.558594 5.1464844 L 12.595703 4.109375 z M 10.669922 6.0351562 L 10.757812 6.6914062 L 9.7167969 6.9882812 L 10.669922 6.0351562 z M 6.2832031 9.0078125 L 5.4804688 9.8105469 L 5.40625 9.2578125 L 6.2832031 9.0078125 z M 4.4335938 9.5371094 L 4.5917969 10.699219 L 3.0488281 12.242188 L 2.7460938 10.017578 L 4.4335938 9.5371094 z" transform="translate(4 4)"/>
</svg>
